src/icons/pascal.svg

<?xml version="1.0" encoding="UTF-8"?>
<svg version="1.1" viewBox="0 0 24 24" xmlns="http://www.w3.org/2000/svg">
 <g fill="#0288d1" stroke-width="1.796" aria-label="P">
  <path d="m8.8626 14.765-1.1574 6.5974h-3.7681l3.2537-18.725 6.5588 0.01286q3.035 0 4.7712 1.6847 1.7361 1.6847 1.5175 4.3982-0.20576 2.7521-2.302 4.3982-2.0834 1.6461-5.3242 1.6461zm0.52727-3.1251 3.1379 0.02572q1.5175 0 2.5206-0.78448 1.0031-0.78448 1.196-2.122 0.1929-1.3375-0.43725-2.1348-0.6173-0.79734-1.839-0.84878l-3.5495-0.01286z"/>
 </g>
</svg>

<svg viewBox="0 0 24 24" xmlns="http://www.w3.org/2000/svg">
  <path
    d="M8.8626 14.765L7.7052 21.3624H3.9371L7.1908 2.63739L13.7496 2.65025C15.7729 2.65025 17.3633 3.21182 18.5208 4.33495C19.6782 5.45808 20.184 6.92415 20.0383 8.73315C19.9011 10.5679 19.1338 12.034 17.7363 13.1314C16.3474 14.2288 14.5726 14.7775 12.4121 14.7775L8.8626 14.765ZM9.38987 11.6399L12.5278 11.6656C13.5394 11.6656 14.3796 11.4041 15.0484 10.8811C15.7171 10.3581 16.1158 9.65081 16.2444 8.75913C16.373 7.86746 16.2272 7.15586 15.8071 6.62433C15.3956 6.09277 14.7826 5.80984 13.9681 5.77555L10.4186 5.76269L9.38987 11.6399Z"
    fill="#0288D1"
  />
</svg>
